X:1
T:Title
%%score { ( 1 3 ) | 2 }
L:1/8
M:4/4
K:E
V:1 treble nm="Grand Piano"
V:3 treble 
V:2 bass 
V:1
 z4 z2[Q:1/4=100] E2 | G3 G G[DF][EG][FA] | [GB]6 G2 | B3 B BcBG |[M:3/4] [DF]6 |[M:1/4] [DA]2 | %6
[M:4/4] [B,EG]3 [B,EG] [B,EG][B,DF][B,EG][B,FA] | [EGB]6 [B,E]2 | [B,EG]3 F E2 D2 |[M:3/4] E6 | %10
[M:1/4] G2 |[M:4/4] B6 z2 |[M:3/4] c6 |[M:1/4] c2 |[M:4/4] B6 z2 |[M:3/4] [DF]6 |[M:1/4] [B,DB]2 | %17
[M:4/4] [B,EB]3 [B,DA] [B,EG][B,EG][CFA][EAc] | [EGB]6 [B,E]2 | [B,EG]3 F E2 D2 |[M:3/4] E6 |] %21
V:2
 z4 z2 [E,G,]2 | [E,B,E]3 [E,B,E] [E,B,E][B,,B,][E,B,][E,B,] | [E,E]6 [E,B,E]2 | %3
 [E,G,E]3 [E,G,E] [E,G,E][E,A,E][E,G,E][E,B,E] |[M:3/4] [B,,B,]6 |[M:1/4] [B,,B,]2 | %6
[M:4/4] E,3 E, E,B,,E,E, | E,6 G,,2 | B,,3 [B,,A,B,] [B,,G,B,]2 [B,,F,B,]2 |[M:3/4] [E,G,B,]6 | %10
[M:1/4] z2 |[M:4/4] z [E,E][E,E][E,E] [E,E]2 z2 |[M:3/4] z [A,E] [A,E][A,E] [A,E]2 |[M:1/4] z2 | %14
[M:4/4] z [E,E][E,E][E,E] G,2 E,2 |[M:3/4] B,,B,, D,F, B,2 |[M:1/4] A,2 |[M:4/4] G,3 F, E,E,E,E, | %18
 E,6 G,,2 | B,,3 [B,,A,B,] [B,,G,B,]2 [B,,F,B,]2 |[M:3/4] [E,G,B,]6 |] %21
V:3
 x8 | x8 | x8 | x8 |[M:3/4] x6 |[M:1/4] x2 |[M:4/4] x8 | x8 | x8 |[M:3/4] x6 |[M:1/4] x2 | %11
[M:4/4] z GGG G2 G2 |[M:3/4] z A AA A2 |[M:1/4] x2 |[M:4/4] z GGG E2 [B,EG]2 |[M:3/4] B,4 z2 | %16
[M:1/4] x2 |[M:4/4] x8 | x8 | x8 |[M:3/4] x6 |] %21

